X:1
T:Inclina domine
T:Inclina domine
T:Orlande de Lassus
C:Orlande de Lassus
%%score [ 1 2 [ 3 4 ] ]
L:1/8
Q:1/4=104
M:2/2
K:C
V:1 treble nm="Superius" snm="S"
V:2 treble nm="Altus" snm="A"
V:3 treble-8 nm="Tenor 1" snm="T 1"
V:4 treble-8 nm="Tenor 2" snm="T 2"
V:1
 A4 d2 d2 | f3 f e2 c2- | c2 A2 cd ec | fd f3 e d2 | c2 A2 AB cd | e3 d cB c2- | c2 B2 A2 A2 | %7
w: In- cli- na,|do- mi- ne, au-|* rem tu- * * *||am, au- rem _ _ _|_ _ _ _ _|* * * tu-|
 B2 ^c2 d4 | z2 A2 e2 e2 | c3 c B2 G2- | G2 A2 _B4 | A4 z2 e2 | f2 d3 c/B/ c2 | A2 A2 c2 B2- | %14
w: * * am,|in- cli- na,|do- mi- ne, au-|* trem tu-|am, au-|rem tu- * * *|am, au- rem tu-|
 BA A4 G2 | A4 z4 | z2 d4 c2 | B2 A2 A4 | z4 z2 c2- | c2 B2 A2 G2- | GA B2 c4 | z2 f4 e2 | d8 | %23
w: |am,|et ex-|au- di me,|et|_ ex- au- di|_ _ _ me,|et ex-|au-|
 c4 B4- | B8 | z8 | z8 | z4 z2 A2- | AA A2 B4 | A2 A2 c2 B2- | B2 A3 G AB | c2 c2 B2 B2 | %32
w: di me,|_|||quo-|* ni- am in-|ops et pau- per|_ sum _ _ _|e- go, et pau-|
 dc cB/A/ B2 c2 | G4 z4 | z2 c3 c c2 | d4 c2 c2 | f4 d2 d2 | c4 c4 | z8 | z2 d4 g2- | g2 f2 e2 AB | %41
w: per _ _ _ _ _ _|sum,|quo- ni- am|in- ops et|pau- per sum|e- go,||et pau-|* per sum e- *|
 cd e3 d d2- | dc c4 B2 | c4 z2 c2 | c2 c2 BA A2- |"^#" A2 G2 A4- | A4 z4 | z8 | z4 z2 A2- | %49
w: ||go, et|pau- per sum _ e-|* * go,|_||lae-|
 A2 d3 d B2 | c3 c A2 A2 | c3 B/A/ c2 B2 | c4 A2 d2- | dd c2 G2 A2 | A2 A2 B2 c2- | c2 B2 z2 e2 | %56
w: * ti- fi- ca|a- ni- mam ser-|vi _ _ tu- *|i, lae- ti-|* fi- ca a- ni-|mam ser- vi tu-|* i, lae-|
 f3 f d2 e2- | ee c4 f2 | e2 d4 c2 | d4 z2 d2- | dd d2 e2 f2 | fe dc d2 d2 | ^c8 | z8 | %64
w: ti- fi- ca a-|ni- mam ser- vi|tu- * *|i, quo-|* ni- am ad te|do- * * * * mi-|ne||
 z2 e3 e e2 | d4 c2 A2 | e2 A2 z4 | z2 f3 f f2 | e4 d2 f2- | ff f2 e2 f2 | d2 g3 f/e/ f2 | e4 z4 | %72
w: a- ni- mam|me- am le-|va- vi,|a- ni- mam|me- am, a-|* ni- mam me- am|le- va- * * *|vi,|
 z8 | z2 f3 f f2 | e2 c2 z2 c2- | cc c2 B4 | A2 F2 f4- | f2 d2 d2 g2- | gf e3 d c2- | cB A2 A4- | %80
w: |a- ni- mam|me- am, a-|* ni- mam me-|am le- va-|* vi, le- va-||* * * vi.|
 A8 |] %81
w: _|
V:2
 z8 | D4 A2 A2 | F3 F E2 A2- | A2 A2 A4 | A2 E2 F2 A2- | A2 GF EDEF | G4 C2 C2 | G2 A2 A3 A | %8
w: |In- cli- na,|do- mi- ne, au-|* rem tu-|am, au- rem tu-||* am, in-|cli- na, do- mi-|
 A2 c4 B2 | A4 G2 C2 | EDEF G2 G2 | D4 A4- | A2 A2 A3 G | F2 ED E4 | E4 z2 E2- | E2 E2 F2 G2 | %16
w: ne, au- rem|tu- am, au-|rem _ _ _ _ tu-|am, au-|* rem tu- *||am, et|_ ex- au- di|
 A4 A4 | G2 F4 E2- | ED FG A2 G2 | z2 G2 F2 E2- | E2 D2 A4- | A4 c4 | B2 AG FE D2 | EDEF G4- | %24
w: me, et|ex- au- *|* * * * di me,|et ex- au-|* di me,|_ et|ex- au- * * * *|* * * * di|
 G4 G4 | z8 | z8 | z8 | z4 z2 D2- | DD D2 E4 | D2 D2 F4 | E2 C2 G4 | A2 A2 G4 | E2 G3 F F2- | %34
w: _ me,||||quo-|* ni- am in-|ops et pau-|per sum e-|go, et pau-|per sum _ e-|
 F2 E2 A4 | z4 z2 A2- | AA A2 _B4 | G2 G2 A3 G |"^b""^b" AB c4 B2- | B2 A4 G2 | A3 B c4 | %41
w: * * go,|quo-|* ni- am in-|ops et pau- *|* * * per|_ sum e-|* * go,|
 z2 c4 B2 | A2 A2 G4 | G2 E2 A4 | G2 G2 F4 | E4 ^C4 | z2 D2 G3 G | E2 F3 F D2 | G2 G2 E4 | %49
w: et pau-|per sum e-|go, et pau-|per sum e-|* go,|lae- ti- fi-|ca a- ni- mam|ser- vi tu-|
 ^F2 A2 B3 B | G2 A3 A F2 |"^#" G2 A4 G2 | A4 z2 D2 | G3 G E2 F2- | FF C2 D2 E2 | A2 G2 G2 A2- | %56
w: i, lae- ti- fi-|ca a- ni- mam|ser- vi tu-|i, lae-|ti- fi- ca a-|* ni- mam ser- vi|tu- i, lae- ti-|
 AA F2 G3 G | E2 A4 c2 | B4 A4 | z2 A3 A A2 | A2 B2 cB AG | F6 G2 | A2 A3 A A2 | G4 F2 A2 | c8 | %65
w: * fi- ca a- ni-|mam ser- vi|tu- i,|quo- ni- am|ad te do- * * *|* mi-|ne, a- ni- mam|me- am le-|va-|
 A6 c2- | cc c2 B4 | A6 c2- | cc c2 B2 A2- | A2 F2 c3 B/A/ | B4 A4 | c3 c c4 | B4 c2 c2- | %73
w: vi a-|* ni- mam me-|am, a-|* ni- mam me- am|_ le- va- * *|* vi|a- ni- mam|me- am, a-|
 cc c2 _B2 AB |"^b" cB AG F2 E2 | A4 D2 G2 | c4 A2 A2- | AA A2 _B2 B2 | A2 c3 B A2- | AG F3 E D2- | %80
w: * ni- mam me- * *|* * * * am le-|va- vi, le-|va- vi a-|* ni- mam me- am|le- va- * *||
 D2 ^CB, C4 |] %81
w: * * * vi.|
V:3
 z8 | z8 | z4 A4 | d2 d2 f3 f | e2 c4 A2 | c2 B2 z2 A2 | d2 d2 f3 f | e4 f4 | d2 a3 g gf/e/ | %9
w: ||In-|cli- na, do- mi-|ne, au- rem|tu- am, in-|cli- na, do- mi-|ne, au-|rem tu- * * * *|
 f2 e2 z4 | z2 A2 d2 d2 | f3 f e4 | z2 f4 e2 | d2 cB A2 B2 | c4 B4 | A2 c4 d2 | e2 f2 e4 | %17
w: * am,|in- cli- na,|do- mi- ne,|au- rem|tu- * * * *||am, et ex-|au- di me,|
 z2 d4 c2 | B2 AB cd e2 | d4 z4 | g4 f2 e2- | e2 f2 g2 g2- | g2 f2 a2 g2- | g2 c2 z2 d2- | %24
w: et ex-|au- * * * * di|me,|et ex- au-|* di- me, et|_ ex- au- di|_ me, quo-|
 dd d2 e4 | d2 d2 f2 e2- | e2 d3 c de | fe a4 de | fe ^f2 g4 | z8 | z8 | z2 e3 e e2 | f4 e4 | %33
w: * ni- am in-|ops et pau- per|_ sum e- * *||* * * go,|||quo- ni- am|in- ops|
 z2 e2 a4- | a2 g2 f2 f2- | fe de f2 e2 | z2 d3 d f2- | f2 e2 f4 | d2 a4 g2 | f4 d4 | c4 z2 e2 | %41
w: et pau-|* per sum e-|* * * * * go,|quo- ni- am|_ in- ops|et pau- per|sum e-|go, et|
 a4 g4 | f4 d4 | e2 g2 f2 f2 | e4 d3 c | BA B2 A2 e2 | f3 f d2 e2- | ee c2 d2 f2 | ed d4 c2 | %49
w: pau- per|sum e-|go, et pau- per|sum e- *|* * * go, lae-|ti- fi- ca a-|* ni- mam ser- vi|tu- * * *|
 d2 ^f2 g3 g | e2 f3 f d2 | e2 f2 e4 | A2 e2 f3 f | d2 e3 e c2 | d2 e2 g4 | f2 d2 e3 e | %56
w: i, lae- ti- fi-|ca a- ni- mam|ser- vi tu-|i, lae- ti- fi-|ca a- ni- mam|ser- vi tu-|i, lae- ti- fi-|
"^b" c2 d3 d B2 | cd ec fg a2 | g4 e4 | d4 ^f3 f | ^f2 g4 =f2 | d6 d2 | e4 z2 e2- | ee e2 d4 | %64
w: ca a- ni- mam|ser- * * * * * *|vi tu-|i, quo- ni-|am ad te|do- mi-|ne, a-|* ni- mam me-|
 c2 A2 a3 g | fe de f2 e2 | e3 e e2 d2- | d2 c2 d2 a2- | a2 g4 fe | d2 a3 a a2 | g2 d2 z2 d2 | %71
w: am le- va- *|* * * * * vi|a- ni- mam me-|* am le- va-||vi a- ni- mam|me- am le-|
 g2 c2 g3 g | g2 f2 e2 A2 | a4 f4 | z2 e2 a3 g | f2 ef gf de | fg a2 d3 d | f2 f2 g2 d2 | %78
w: va- vi, a- ni-|mam me- am le-|va- vi,|le- va- *||* * vi a- ni-|mam me- am le-|
 (3e2 f2 g2 (3c2 d2 e2 | f2 c2 (3d2 e2 f2 | e8 |] %81
w: va- * * * * *||vi.|
V:4
 z8 | z8 | z8 | z4 D4 | A2 A2 F3 F | E2 E2 A4 | G4 F4 | z2 A2 d2 d2 | f3 f e4 |"^#" z2 A2 e2 e2 | %10
w: |||In-|cli- na, do- mi-|ne, au- rem|tu- am,|in- cli- na,|do- mi- ne,|in- cli- na,|
 c3 c G4 | z2 d4 ^c2 | d4 A4 | z2 A4 ^G2 | A4 E4 | z2 A4 B2 | ^c2 d2 A4 | z4 z2 A2 | G2 F4 C2 | %19
w: do- mi- ne,|au- rem|tu- am,|au- rem|tu- am,|et ex-|au- di me,|et|ex- au- di|
 G4 z2 c2- | c2 B2 A3 B | c2 d2 c4 | z2 d4 B2 | c2 A2 G4- | G4 z2 G2- | GG G2 A4 | G2 G2 _B4 | %27
w: me, et-|_ ex- au- *|* di me,|et ex-|au- di- me,|_ quo-|* ni- am in-|ops et pau-|
 A2 F2 f3 e | d^c d2 G4 | z8 | z8 | z8 | z4 z2 c2- | cc c2 d4 | c4 z2 F2 |"^b" B4 A4 | d4 _B4 | %37
w: per sum e- *|* * * go,||||quo-|* ni- am in-|ops, et|_ per|sum e-|
 c4 z2 F2 | f4 e4 | d4 _B4 | A8- | A4 z4 | z4 G4 | c4 F4 | C4 D4 | E4 z2 A2 | d3 d B2 c2- | %47
w: go, et|pau- per|sum e-|go,|_|et|pau- per|sum e-|go, lae-|ti- fi- ca a-|
 cc A2 _B4 | G4 A4 | D4 z4 | z8 | z8 | z2 A2 d3 d | B2 c3 c F2 | D2 A2 G2 C2 | z2 G2 c3 c | %56
w: * ni- mam ser-|vi- tu-|i,|||lae- ti- fi-|ca a- ni- mam|ser- vi tu- i,|lae- ti- fi-|
 A2 _B3 B G2 | A4 F4 | G4 A4 | D4 d3 d | d2 G2 c2 d2- | dc _BA B2 B2 | A8 | z8 | z8 | z4 z2 A2- | %66
w: ca a- ni- mam|ser- vi|tu- *|i, quo- ni-|am ad te do-|* * * * * mi-|ne,|||a-|
 AA A2 G4 | F2 F2 f4 | c4 z2 d2- | dd d2 A2 F2 | z2 G2 d4 | c2 e3 e e2- | e2 d2 c2 e2 | f3 e d4 | %74
w: * ni- mam me-|am le- va-|vi, a-|* ni- mam me- am|le- va-|vi, a- ni- mam|_ me- am le-|va- * *|
 A4 z2 A2- | AA A2 G4 | F4 z2 D2 | d4 G2 G2 | c3 B A3 G | F3 E D4 | A8 |] %81
w: vi, a-|* ni- mam me-|am, le-|va- vi, le-|va- * * *||vi.|

